X:1
T: Lady Gwydyr
C:
R:Strathspey
Q: 128
K:D
M:4/4
L:1/16
|:F2|D3A F3A Dd3 d3B|A3D F3D EB,3 B,3E|D3A F3A D3g f3e|d3B A3F DD3 D2F2|
D3A F3A Dd3 d3B|A3D F3D EB,3 B,3E|D3A F3A D3g f3e|d3B A3F DD3 D2f2|
defg a3d fd3 a3d|ABcd e3A cA3 e3A|defg a3d fd3 a3d|A3g f3e fd3 d3f|
defg a3d fd3 a3d|ABcd e3A cA3 e3A|d3f e3g f3d ef3|d3B A3F DD3 D2:|
